packages/Snappmarket/src/BoxWithTickIcon/index.svg

<svg
  xmlns="http://www.w3.org/2000/svg"
  width="32pt"
  height="32pt"
  viewBox="0 0 32 32"
  version="1.1"
  id="BoxWithTickIcon"
>
  <g>
    <path
      stroke="none"
      fillRule="nonzero"
      fill="rgb(12.54902%,87.45098%,22.352941%)"
      d="M 22.566406 6.339844 C 22.566406 9.488281 20.011719 12.042969 16.859375 12.042969 C 13.710938 12.039062 11.15625 9.488281 11.15625 6.335938 C 11.15625 3.1875 13.710938 0.632812 16.863281 0.632812 C 20.011719 0.632812 22.566406 3.1875 22.566406 6.339844 Z M 22.566406 6.339844 "
    />
    <path
      stroke="none"
      fillRule="nonzero"
      fill="rgb(7.843137%,27.843137%,100%)"
      d="M 22.394531 4.953125 L 21.292969 9.929688 L 27.636719 12.042969 L 31.820312 7.859375 Z M 22.394531 4.953125 "
    />
    <path
      stroke="none"
      fillRule="nonzero"
      fill="rgb(7.843137%,27.843137%,100%)"
      d="M 11.464844 4.484375 L 0.636719 7.855469 L 4.820312 12.039062 L 12.175781 9.59375 Z M 11.464844 4.484375 "
    />
    <path d="M 15.78125 8.6875 C 16.03125 8.9375 16.429688 8.9375 16.679688 8.6875 L 20.480469 4.886719 C 20.730469 4.636719 20.730469 4.234375 20.480469 3.988281 C 20.234375 3.742188 19.832031 3.742188 19.585938 3.988281 L 16.230469 7.34375 L 15.410156 6.523438 C 15.164062 6.277344 14.761719 6.277344 14.511719 6.523438 C 14.265625 6.773438 14.265625 7.171875 14.511719 7.421875 Z M 15.78125 8.6875 "/>
    <path
      stroke="none"
      fillRule="nonzero"
      fill="rgb(83.529412%,87.058824%,100%)"
      d="M 21.363281 10.226562 L 16.222656 12.042969 L 12.164062 10.089844 L 4.820312 12.042969 L 16.226562 15.847656 L 27.636719 12.042969 Z M 21.363281 10.226562 "
    />
    <path
      stroke="none"
      fillRule="nonzero"
      fill="rgb(7.843137%,27.843137%,100%)"
      d="M 16.230469 15.847656 L 19.605469 20.066406 L 31.824219 16.226562 L 27.636719 12.042969 Z M 16.230469 15.847656 "
    />
    <path
      stroke="none"
      fillRule="nonzero"
      fill="rgb(7.843137%,27.843137%,100%)"
      d="M 2.144531 16.503906 L 13.554688 20.304688 L 16.226562 15.851562 L 4.816406 12.042969 Z M 2.144531 16.503906 "
    />
    <path
      stroke="none"
      fillRule="nonzero"
      fill="rgb(7.843137%,27.843137%,100%)"
      d="M 27.632812 17.542969 L 16.226562 15.847656 L 6.085938 17.8125 L 6.085938 28.019531 L 16.230469 31.820312 L 27.636719 28.019531 L 27.636719 17.558594 Z M 27.632812 17.542969 "
    />
    <path d="M 9.890625 24.71875 C 10.238281 24.71875 10.523438 24.4375 10.523438 24.085938 C 10.523438 23.734375 10.238281 23.453125 9.890625 23.453125 C 9.539062 23.453125 9.253906 23.734375 9.253906 24.085938 C 9.253906 24.4375 9.539062 24.71875 9.890625 24.71875 Z M 9.890625 24.71875 "/>
    <path d="M 12.058594 25.519531 L 13.46875 26.046875 C 13.792969 26.15625 14.144531 25.988281 14.265625 25.667969 C 14.386719 25.347656 14.230469 24.992188 13.914062 24.859375 L 12.503906 24.332031 C 12.179688 24.222656 11.828125 24.390625 11.710938 24.710938 C 11.589844 25.03125 11.746094 25.386719 12.058594 25.519531 Z M 12.058594 25.519531 "/>
    <path d="M 13.914062 27.570312 L 10.109375 26.140625 C 9.898438 26.054688 9.652344 26.089844 9.472656 26.234375 C 9.289062 26.378906 9.203125 26.609375 9.242188 26.839844 C 9.285156 27.066406 9.445312 27.253906 9.664062 27.328125 L 13.46875 28.753906 C 13.683594 28.84375 13.929688 28.808594 14.109375 28.664062 C 14.289062 28.519531 14.378906 28.285156 14.335938 28.058594 C 14.296875 27.832031 14.132812 27.640625 13.914062 27.570312 Z M 13.914062 27.570312 "/>
    <path d="M 4.019531 12.140625 L 1.601562 16.171875 C 1.503906 16.335938 1.484375 16.535156 1.550781 16.714844 C 1.613281 16.898438 1.757812 17.039062 1.941406 17.101562 L 5.445312 18.269531 L 5.445312 28.023438 C 5.445312 28.285156 5.609375 28.523438 5.859375 28.617188 L 16.011719 32.421875 C 16.140625 32.46875 16.285156 32.472656 16.417969 32.429688 L 16.421875 32.429688 L 27.832031 28.625 C 28.089844 28.539062 28.265625 28.296875 28.265625 28.023438 L 28.265625 18.007812 L 32.003906 16.832031 C 32.21875 16.765625 32.378906 16.59375 32.429688 16.378906 C 32.484375 16.164062 32.421875 15.9375 32.265625 15.777344 L 28.527344 12.042969 L 32.269531 8.308594 C 32.425781 8.152344 32.488281 7.921875 32.4375 7.707031 C 32.382812 7.492188 32.222656 7.320312 32.007812 7.253906 L 22.914062 4.441406 C 22.113281 1.886719 19.792969 0.113281 17.117188 0.00390625 C 14.441406 -0.101562 11.988281 1.484375 10.984375 3.964844 L 0.445312 7.253906 C 0.234375 7.320312 0.0742188 7.492188 0.0195312 7.707031 C -0.0351562 7.925781 0.03125 8.152344 0.1875 8.308594 Z M 5.101562 12.804688 L 15.28125 16.199219 L 13.277344 19.539062 L 3.09375 16.144531 Z M 11.945312 10.335938 C 13.097656 11.757812 14.8125 12.613281 16.644531 12.675781 C 18.476562 12.738281 20.246094 12.003906 21.496094 10.664062 L 25.632812 12.042969 L 16.226562 15.179688 L 6.820312 12.042969 Z M 6.71875 18.691406 C 13.703125 21.003906 13.363281 20.9375 13.554688 20.9375 C 13.777344 20.9375 13.984375 20.820312 14.097656 20.628906 L 15.59375 18.132812 L 15.59375 30.902344 L 6.71875 27.578125 Z M 27.003906 27.5625 L 16.863281 30.941406 L 16.863281 17.65625 L 19.109375 20.46875 C 19.273438 20.671875 19.542969 20.753906 19.792969 20.675781 L 27.003906 18.410156 Z M 30.632812 15.9375 L 19.828125 19.328125 L 17.289062 16.160156 L 27.464844 12.765625 Z M 27.464844 11.316406 L 22.296875 9.597656 C 22.886719 8.613281 23.199219 7.488281 23.199219 6.339844 C 23.199219 6.179688 23.191406 6.019531 23.179688 5.855469 L 30.628906 8.15625 Z M 16.863281 1.265625 C 18.207031 1.265625 19.5 1.800781 20.449219 2.75 C 21.402344 3.703125 21.933594 4.992188 21.933594 6.339844 C 21.933594 9.140625 19.664062 11.410156 16.863281 11.410156 C 15.035156 11.4375 13.332031 10.476562 12.410156 8.894531 C 11.488281 7.316406 11.488281 5.363281 12.410156 3.785156 C 13.332031 2.203125 15.035156 1.242188 16.863281 1.269531 Z M 10.589844 5.417969 C 10.546875 5.722656 10.523438 6.03125 10.523438 6.339844 C 10.519531 7.347656 10.761719 8.34375 11.226562 9.242188 L 4.988281 11.316406 L 1.824219 8.152344 Z M 10.589844 5.417969 "/>
  </g>
</svg>

<svg xmlns="http://www.w3.org/2000/svg" viewBox="0 0 32 32">
  <path fill="#20DF39" d="M22.566 6.34a5.706 5.706 0 11-11.41-.005 5.706 5.706 0 0111.41.005zm0 0"/>
  <path fill="#1447FF" d="M22.395 4.953L21.293 9.93l6.344 2.113 4.183-4.184zm-10.93-.469L.637 7.855 4.82 12.04l7.356-2.445zm0 0"/>
  <path d="M15.781 8.688c.25.25.649.25.899 0l3.8-3.801a.634.634 0 00-.895-.898L16.23 7.343l-.82-.82a.639.639 0 00-.898 0 .639.639 0 000 .898zm0 0"/>
  <path fill="#D5DEFF" d="M21.363 10.227l-5.14 1.816-4.059-1.953-7.344 1.953 11.407 3.805 11.41-3.805zm0 0"/>
  <path fill="#1447FF" d="M16.23 15.848l3.375 4.218 12.22-3.84-4.188-4.183zm-14.085.656l11.41 3.8 2.672-4.452-11.41-3.809zm0 0"/>
  <path fill="#1447FF" d="M27.633 17.543l-11.406-1.695-10.141 1.964V28.02l10.144 3.8 11.407-3.8V17.559zm0 0"/>
  <path d="M9.89 24.719a.633.633 0 100-1.266.634.634 0 100 1.266zm2.169.801l1.41.527a.635.635 0 00.445-1.188l-1.41-.527a.635.635 0 00-.445 1.188zm1.855 2.05l-3.805-1.43a.637.637 0 00-.867.7.64.64 0 00.422.488l3.805 1.426a.633.633 0 10.445-1.184zm0 0"/>
  <path d="M4.02 12.14l-2.418 4.032a.632.632 0 00-.051.543.62.62 0 00.39.387l3.504 1.168v9.753c0 .262.164.5.414.594l10.153 3.805c.129.047.273.05.406.008h.004l11.41-3.805a.635.635 0 00.434-.602V18.008l3.738-1.176a.624.624 0 00.426-.453.636.636 0 00-.164-.602l-3.739-3.734 3.743-3.734a.645.645 0 00.167-.602.636.636 0 00-.43-.453L22.915 4.44A6.343 6.343 0 0017.117.004a6.347 6.347 0 00-6.133 3.96L.445 7.255A.632.632 0 00.187 8.31zm1.082.665l10.18 3.394-2.005 3.34-10.183-3.394zm6.843-2.47a6.329 6.329 0 009.551.33l4.137 1.378-9.406 3.137-9.407-3.137zM6.72 18.692c6.984 2.313 6.644 2.247 6.836 2.247.222 0 .43-.118.543-.31l1.496-2.495v12.77L6.72 27.579zm20.285 8.872l-10.14 3.378V17.656l2.245 2.813a.633.633 0 00.684.207l7.21-2.266zm3.629-11.625l-10.805 3.39-2.539-3.168 10.176-3.394zm-3.168-4.622l-5.168-1.718a6.337 6.337 0 00.883-3.743l7.449 2.301zM16.863 1.266a5.07 5.07 0 015.07 5.074 5.07 5.07 0 01-5.07 5.07 5.067 5.067 0 01-4.453-2.515 5.065 5.065 0 010-5.11 5.067 5.067 0 014.453-2.515zM10.59 5.418a6.609 6.609 0 00-.067.922 6.266 6.266 0 00.704 2.902l-6.239 2.074-3.164-3.164zm0 0"/>
</svg>
